web/cobrands/fixmystreet.com/images/fms-for-councils/customise.svg

<?xml version="1.0" encoding="UTF-8" standalone="no"?>
<svg width="72px" height="72px" viewBox="0 0 72 72" version="1.1" xmlns="http://www.w3.org/2000/svg" xmlns:xlink="http://www.w3.org/1999/xlink">
    <!-- Generator: Sketch 39.1 (31720) - http://www.bohemiancoding.com/sketch -->
    <title>customise</title>
    <desc>Created with Sketch.</desc>
    <defs></defs>
    <g id="Page-1" stroke="none" stroke-width="1" fill="none" fill-rule="evenodd">
        <g id="customise" fill="#E65376">
            <path d="M54.8459238,58.9057844 L49.5659238,50.9457844 L52.6679238,48.8857844 L57.9499238,56.8357844 L54.8459238,58.9057844 L54.8459238,58.9057844 Z M31.1129238,23.1557844 L25.7619238,15.1057844 L28.8669238,13.0457844 L34.2159238,21.0957844 L31.1129238,23.1557844 L31.1129238,23.1557844 Z M59.9209238,56.5257844 L53.7219238,47.1957844 C53.7209238,47.1957844 53.7209238,47.1957844 53.7199238,47.1857844 L36.1929238,20.7957844 L36.1889238,20.7957844 C36.1889238,20.7957844 36.1889238,20.7957844 36.1879238,20.7957844 L29.9199238,11.3557844 C29.6739238,10.9757844 29.1109238,10.8857844 28.7019238,11.1557844 L24.0879238,14.2157844 C23.6659238,14.4957844 23.5339238,15.0257844 23.7909238,15.4157844 L30.0549238,24.8457844 C30.0569238,24.8457844 30.0589238,24.8457844 30.0599238,24.8557844 L30.0619238,24.8557844 L47.5979238,51.2657844 C47.5989238,51.2657844 47.6009238,51.2657844 47.6029238,51.2757844 L53.7939238,60.5957844 C53.9409238,60.8157844 54.1959238,60.9557844 54.4759238,60.9557844 C54.6649238,60.9557844 54.8509238,60.8957844 55.0109238,60.7857844 L59.6239238,57.7257844 C60.0449238,57.4457844 60.1769238,56.9257844 59.9209238,56.5257844 L59.9209238,56.5257844 Z" id="Fill-511"></path>
            <path d="M24.9839238,33.5357844 C25.0489238,33.5357844 25.1129238,33.5157844 25.1669238,33.4757844 C25.2729238,33.3957844 25.3189238,33.2657844 25.2799238,33.1357844 L24.2869238,29.8957844 L27.0169238,27.8457844 C27.1229238,27.7657844 27.1669238,27.6257844 27.1259238,27.5057844 C27.0859238,27.3757844 26.9699238,27.2957844 26.8389238,27.2857844 L23.4099238,27.2157844 L22.2859238,24.0157844 C22.2419238,23.8957844 22.1249238,23.8057844 21.9929238,23.8057844 C21.8619238,23.8057844 21.7459238,23.8957844 21.7029238,24.0157844 L20.5769238,27.2157844 L17.1489238,27.2857844 C17.0169238,27.2957844 16.9009238,27.3757844 16.8609238,27.5057844 C16.8209238,27.6257844 16.8639238,27.7657844 16.9699238,27.8457844 L19.6999238,29.8957844 L18.7069238,33.1357844 C18.6689238,33.2657844 18.7139238,33.3957844 18.8199238,33.4757844 C18.9269238,33.5557844 19.0709238,33.5557844 19.1779238,33.4757844 L21.9929238,31.5457844 L24.8089238,33.4757844 C24.8629238,33.5157844 24.9219238,33.5357844 24.9839238,33.5357844" id="Fill-512"></path>
            <path d="M29.3349238,39.3557844 L27.0399238,39.3057844 L26.2859238,37.1657844 C26.2579238,37.0857844 26.1789238,37.0257844 26.0919238,37.0257844 C26.0039238,37.0257844 25.9259238,37.0857844 25.8969238,37.1657844 L25.1439238,39.3057844 L22.8479238,39.3557844 C22.7609238,39.3557844 22.6829238,39.4157844 22.6559238,39.4957844 C22.6289238,39.5857844 22.6589238,39.6757844 22.7279238,39.7257844 L24.5549238,41.0957844 L23.8909238,43.2657844 C23.8659238,43.3557844 23.8969238,43.4457844 23.9679238,43.4957844 C24.0379238,43.5457844 24.1359238,43.5457844 24.2069238,43.4957844 L26.0919238,42.2057844 L27.9759238,43.4957844 C28.0119238,43.5257844 28.0529238,43.5357844 28.0929238,43.5357844 C28.1369238,43.5357844 28.1789238,43.5257844 28.2159238,43.4957844 C28.2869238,43.4457844 28.3169238,43.3557844 28.2919238,43.2657844 L27.6269238,41.0957844 L29.4549238,39.7257844 C29.5249238,39.6757844 29.5539238,39.5857844 29.5279238,39.4957844 C29.4999238,39.4157844 29.4229238,39.3557844 29.3349238,39.3557844" id="Fill-513"></path>
            <path d="M16.7949238,35.3057844 L15.1499238,35.2757844 L14.6099238,33.7357844 C14.5889238,33.6757844 14.5319238,33.6357844 14.4699238,33.6357844 C14.4069238,33.6357844 14.3509238,33.6757844 14.3289238,33.7357844 L13.7899238,35.2757844 L12.1449238,35.3057844 C12.0819238,35.3057844 12.0259238,35.3557844 12.0069238,35.4057844 C11.9879238,35.4657844 12.0089238,35.5357844 12.0589238,35.5757844 L13.3689238,36.5557844 L12.8919238,38.1157844 C12.8739238,38.1757844 12.8949238,38.2357844 12.9469238,38.2757844 C12.9979238,38.3157844 13.0669238,38.3157844 13.1179238,38.2757844 L14.4699238,37.3557844 L15.8209238,38.2757844 C15.8469238,38.2957844 15.8759238,38.3057844 15.9049238,38.3057844 C15.9359238,38.3057844 15.9669238,38.2957844 15.9929238,38.2757844 C16.0429238,38.2357844 16.0649238,38.1757844 16.0469238,38.1157844 L15.5699238,36.5557844 L16.8809238,35.5757844 C16.9319238,35.5357844 16.9529238,35.4657844 16.9339238,35.4057844 C16.9139238,35.3557844 16.8579238,35.3057844 16.7949238,35.3057844" id="Fill-514"></path>
        </g>
    </g>
</svg>

<svg width="72" height="72" viewBox="0 0 72 72" xmlns="http://www.w3.org/2000/svg"><title>customise</title><g fill="#E65376" fill-rule="evenodd"><path d="M54.846 58.906l-5.28-7.96 3.102-2.06 5.282 7.95-3.104 2.07zm-23.733-35.75l-5.35-8.05 3.104-2.06 5.35 8.05-3.104 2.06zm28.808 33.37l-6.198-9.33-.002-.01-17.527-26.39h-.004-.002l-6.268-9.44c-.246-.38-.81-.47-1.218-.2l-4.614 3.06c-.422.28-.554.81-.297 1.2l6.265 9.43c.002 0 .004 0 .005.01h.002l17.536 26.41s.003 0 .005.01l6.19 9.32c.148.22.403.36.683.36.19 0 .375-.06.535-.17l4.614-3.06c.42-.28.553-.8.297-1.2zM24.984 33.536c.065 0 .13-.02.183-.06.106-.08.152-.21.113-.34l-.993-3.24 2.73-2.05c.106-.08.15-.22.11-.34-.04-.13-.157-.21-.288-.22l-3.43-.07-1.124-3.2c-.044-.12-.16-.21-.293-.21-.13 0-.247.09-.29.21l-1.126 3.2-3.428.07c-.133.01-.25.09-.29.22-.04.12.004.26.11.34l2.73 2.05-.993 3.24c-.038.13.007.26.113.34.107.08.25.08.358 0l2.815-1.93 2.816 1.93c.053.04.112.06.174.06M29.335 39.356l-2.295-.05-.754-2.14c-.028-.08-.107-.14-.194-.14-.088 0-.166.06-.195.14l-.753 2.14-2.296.05c-.087 0-.165.06-.192.14-.027.09.003.18.072.23l1.827 1.37-.664 2.17c-.024.09.007.18.078.23.07.05.168.05.24 0l1.884-1.29 1.884 1.29c.036.03.077.04.117.04.044 0 .086-.01.123-.04.07-.05.1-.14.076-.23l-.665-2.17 1.828-1.37c.07-.05.1-.14.073-.23-.028-.08-.105-.14-.193-.14M16.795 35.306l-1.645-.03-.54-1.54c-.02-.06-.078-.1-.14-.1-.063 0-.12.04-.14.1l-.54 1.54-1.645.03c-.063 0-.12.05-.138.1-.02.06.002.13.052.17l1.31.98-.478 1.56c-.018.06.003.12.055.16.05.04.12.04.17 0l1.353-.92 1.35.92c.027.02.056.03.085.03.03 0 .062-.01.088-.03.05-.04.072-.1.054-.16l-.477-1.56 1.31-.98c.052-.04.073-.11.054-.17-.02-.05-.076-.1-.14-.1"/></g></svg>
